icons/outline/pencil-cog.svg

<!--
category: Design
tags: [edit, settings, adjust, configure, customize, craft, develop, tweak, optimize, fine-tune]
version: "2.28"
unicode: "fc01"
-->
<svg
  xmlns="http://www.w3.org/2000/svg"
  width="24"
  height="24"
  viewBox="0 0 24 24"
  fill="none"
  stroke="currentColor"
  stroke-width="2"
  stroke-linecap="round"
  stroke-linejoin="round"
>
  <path d="M4 20h4l10.5 -10.5a2.828 2.828 0 1 0 -4 -4l-10.5 10.5v4m9.5 -13.5l4 4m1.501 8.5m-2 0a2 2 0 1 0 4 0a2 2 0 1 0 -4 0m2 -3.5v1.5m0 4v1.5m3.031 -5.25l-1.299 .75m-3.463 2l-1.3 .75m0 -3.5l1.3 .75m3.463 2l1.3 .75" />
</svg>

<!--
category: Design
tags: [edit, settings, adjust, configure, customize, craft, develop, tweak, optimize, fine-tune]
version: "2.28"
unicode: "fc01"
-->
<svg
  xmlns="http://www.w3.org/2000/svg"
  width="24"
  height="24"
  viewBox="0 0 24 24"
  fill="none"
  stroke="currentColor"
  stroke-width="2"
  stroke-linecap="round"
  stroke-linejoin="round"
>
    <path d="M4 20h4l10.5 -10.5a2.828 2.828 0 1 0 -4 -4l-10.5 10.5v4M13.5 6.5l4 4M19.001 19m-2 0a2 2 0 1 0 4 0a2 2 0 1 0 -4 0M19.001 15.5v1.5M19.001 21v1.5M22.032 17.25l-1.299 .75M17.27 20l-1.3 .75M15.97 17.25l1.3 .75M20.733 20l1.3 .75" />
</svg>
